X: 240
T:Ashley's Flag,aka. JC.245
M:C|
L:1/8
Q:190
C:Untitled in MS.
S:John Clare,Poet,Helpstone (1793-1864)
R:Hornpipe
O:England241
A:Northamptonshire
N:
Z:vmp.P.hil Headford
K:G
"qu"c2|BdBGc2AF|G2G2G3d|e2g2d2g2|ABcA GFED|!
BdBGc2AF|G2g2g2ef|gfed Ad^ce|d2d2d2:|!:
AB|cBAG Gged|c2A2A2AB|cBAG Fedc|B2G2G2"qu"D2|!
E2g2D2f2|G2e2B2c2|cBAG Fedc|B2G2G2:|]
